docs/.gitbook/assets/icon-light-bulb-off-16@light.svg

<svg width="32" height="32" viewBox="0 0 16 16" fill="none" xmlns="http://www.w3.org/2000/svg">
<rect x="0" y="0" width="16" height="16" fill="#fff"/>
<path fill-rule="evenodd" clip-rule="evenodd" d="M1.21967 1.21967C1.51256 0.926777 1.98744 0.926777 2.28033 1.21967L4.02602 2.96536C4.93901 1.77158 6.37898 1 8 1C10.7614 1 13 3.23858 13 6C13 6.84933 12.7876 7.65129 12.4124 8.35345C12.2368 8.6822 11.9076 9.20713 11.6373 9.62846C11.4992 9.84386 11.3712 10.0402 11.2779 10.1825C11.2732 10.1897 11.2686 10.1966 11.2642 10.2035L14.7803 13.7197C15.0732 14.0126 15.0732 14.4874 14.7803 14.7803C14.4874 15.0732 14.0126 15.0732 13.7197 14.7803L1.21967 2.28033C0.926777 1.98744 0.926777 1.51256 1.21967 1.21967ZM10.1804 9.11969C10.2406 9.02697 10.3064 8.92512 10.3748 8.81859C10.6503 8.38895 10.9466 7.91387 11.0895 7.64655C11.3513 7.15656 11.5 6.59676 11.5 6C11.5 4.067 9.933 2.5 8 2.5C6.79442 2.5 5.73021 3.10934 5.1001 4.03944L7.38347 6.32281C7.5189 6.12773 7.74453 6 8 6C8.41422 6 8.75 6.33579 8.75 6.75V7.68934L10.1804 9.11969ZM3.89561 7.3385C4.26094 7.1433 4.71535 7.28122 4.91055 7.64655C5.08754 7.97781 5.49357 8.61711 5.79859 9.08724C6.07127 9.50754 6.229 9.99494 6.24805 10.5H7.5C7.91421 10.5 8.25 10.8358 8.25 11.25C8.25 11.6642 7.91421 12 7.5 12H6.25V12.75C6.25 12.9652 6.32258 13.1559 6.43556 13.283C6.53627 13.3963 6.70352 13.5 7 13.5H9C9.25508 13.5 9.41069 13.4229 9.50901 13.3378C9.82213 13.0666 10.2958 13.1006 10.567 13.4137C10.8381 13.7268 10.8041 14.2005 10.491 14.4716C10.1013 14.8091 9.59022 15 9 15H7C6.29649 15 5.71374 14.7287 5.31445 14.2795C4.92743 13.8441 4.75 13.2848 4.75 12.75V11.25V10.6037C4.75 10.3582 4.67745 10.1152 4.54022 9.90365C4.2445 9.44783 3.80048 8.75195 3.58756 8.35345C3.39236 7.98811 3.53027 7.53371 3.89561 7.3385Z" fill="#000"/>
</svg>

<svg xmlns="http://www.w3.org/2000/svg" width="32" height="32" fill="none" viewBox="0 0 16 16"><path fill="#fff" d="M0 0h16v16H0z"/><path fill="#000" fill-rule="evenodd" d="M1.22 1.22a.75.75 0 0 1 1.06 0l1.746 1.745a5 5 0 0 1 8.386 5.388c-.175.33-.504.854-.775 1.275-.138.216-.266.412-.36.554q-.006.012-.013.021l3.516 3.517a.75.75 0 1 1-1.06 1.06L1.22 2.28a.75.75 0 0 1 0-1.06m8.96 7.9.195-.301c.275-.43.572-.905.714-1.172A3.5 3.5 0 0 0 5.1 4.04l2.284 2.283a.75.75 0 0 1 1.367.427v.94zM3.896 7.339a.75.75 0 0 1 1.015.308c.177.33.583.97.888 1.44.272.42.43.908.449 1.413H7.5a.75.75 0 0 1 0 1.5H6.25v.75c0 .215.073.406.186.533.1.113.268.217.564.217h2c.255 0 .41-.077.509-.162a.75.75 0 0 1 .982 1.134c-.39.337-.9.528-1.491.528H7c-.704 0-1.286-.271-1.686-.72a2.3 2.3 0 0 1-.564-1.53v-2.146c0-.246-.073-.489-.21-.7-.295-.456-.74-1.152-.952-1.55a.75.75 0 0 1 .308-1.015" clip-rule="evenodd"/></svg>
